X: 160
%
U:~=!turn!
T: Dunnottar Castle
C:
O:Scotland
B:Keith Norman MacDonald : "The Skye collection of the best reels & strathspeys extant" : 1887
Z:Ralph Palmer
R:Strathspey
M:C
L:1/8
K:D
A, | D<DF<A d>e f>e | d/c/B/A/ G/F/E/D/ C/D/E/D/ C<A, | D<DF<A d>ef>e | d/c/B/A/ B/g/f/e/ f<dd :|
f | a>ba<f d'>c'ba | g>fe>d c/d/e/d/ c<A | a>ba<f d'>c'ba | d'/c'/b/a/ b<c' d'2 d((3a/b/c'/) |
(d'>d)(c'>d) (b>d)(a>f) | (g>f)(e>d) c/d/e/d/ c<A | F<D(A>F) (G>F)E>e | d/c/B/A/ B<c d2 d |]


